Suru++-Ubuntu/apps/scalable/pspp.svg

<svg width="256" height="256" version="1.1" viewBox="0 0 67.73 67.73" xmlns="http://www.w3.org/2000/svg" xmlns:xlink="http://www.w3.org/1999/xlink">
 <defs>
  <linearGradient id="linearGradient1108" x1="296" x2="296" y1="-212" y2="236" gradientUnits="userSpaceOnUse">
   <stop style="stop-color:#ffffff" offset="0"/>
   <stop style="stop-color:#ffffff;stop-opacity:.09803922" offset=".125"/>
   <stop style="stop-color:#000000;stop-opacity:.09803922" offset=".925"/>
   <stop style="stop-color:#000000;stop-opacity:.49803922" offset="1"/>
  </linearGradient>
  <clipPath id="clipPath1082-3-361">
   <path d="M 361.9375,-212 C 507.2348,-212 528,-191.28677 528,-46.125 V 70.125 C 528,215.28618 507.2348,236 361.9375,236 H 214.0625 C 68.7652,236 48,215.28618 48,70.125 V -46.125 C 48,-191.28677 68.7652,-212 214.0625,-212 Z" style="fill:#8c59d9"/>
  </clipPath>
  <filter id="filter4569" x="-.01" y="-.01" width="1.023" height="1.025" style="color-interpolation-filters:sRGB">
   <feGaussianBlur stdDeviation="1.16"/>
  </filter>
  <filter id="filter939" x="-.02" y="-.03" width="1.046" height="1.05" style="color-interpolation-filters:sRGB">
   <feGaussianBlur stdDeviation="2.32"/>
  </filter>
 </defs>
 <g transform="translate(0,-229.26666)">
  <path transform="matrix(.26970779 0 0 .26970779 -1.9098094e-8 231.46531)" d="m162.53675 5.5680001c72.64865 0 83.03125 10.356615 83.03125 82.937505v58.125005c0 72.58059-10.3826 82.9375-83.03125 82.9375h-73.937496c-72.648654 0-83.031254-10.35691-83.031254-82.9375v-58.125005c0-72.58089 10.3826-82.937505 83.031254-82.937505z" style="filter:url(#filter939);opacity:.2"/>
  <path d="m43.837429 232.42763c19.593907 0 22.394176 2.79326 22.394176 22.36889v15.67677c0 19.57555-2.800269 22.36889-22.394176 22.36889h-19.941519c-19.593909 0-22.394177-2.79334-22.394177-22.36889v-15.67677c0-19.57563 2.8002682-22.36889 22.394177-22.36889z" style="fill:none;opacity:.1;stroke-linecap:round;stroke-linejoin:round;stroke-width:1.0788311;stroke:#000000"/>
  <path transform="matrix(.26970779 0 0 .26970779 -1.9098094e-8 231.46531)" d="m162.53675 3.5680001c72.64865 0 83.03125 10.356615 83.03125 82.937505v58.125005c0 72.58059-10.3826 82.9375-83.03125 82.9375h-73.937496c-72.648654 0-83.031254-10.35691-83.031254-82.9375v-58.125005c0-72.58089 10.3826-82.937505 83.031254-82.937505z" style="filter:url(#filter4569);opacity:.1"/>
  <g transform="matrix(.56436369 0 0 .56436369 -2.1444139 225.6357)">
   <g transform="translate(-.15957115 .0439385)">
    <path d="m63.833099 11.990731v61.375h-57.212894v6.039062c0 4.335759 0.0778 8.207205 0.28125 11.66211 0.20348 3.454905 0.53328 6.493187 1.03711 9.164067 0.50382 2.67087 1.18297 4.97336 2.0839904 6.95702 0.45051 0.99183 0.95546 1.904 1.52343 2.74219 0.56798 0.83818 1.19896 1.60219 1.89649 2.29883 0.69754 0.69665 1.46158 1.32538 2.30078 1.89258 0.83921 0.5672 1.7531 1.07357 2.74609 1.52343 1.98597 0.89973 4.29112 1.57708 6.96485 2.08008 2.67374 0.50299 5.71548 0.83208 9.17383 1.03516 3.45835 0.20309 7.334002 0.27929 11.673824 0.2793h35.333985c4.339823 0 8.215476-0.0762 11.673828-0.2793 3.458351-0.20308 6.500092-0.53217 9.173828-1.03516 2.67373-0.503 4.97887-1.18035 6.96484-2.08008 0.99299-0.44986 1.90494-0.95623 2.74414-1.52343 0.83921-0.5672 1.6052-1.19593 2.30274-1.89258 0.69753-0.69664 1.32851-1.46065 1.89648-2.29883 0.56797-0.83819 1.07293-1.75036 1.52344-2.74219 0.90102-1.98366 1.58016-4.28615 2.08398-6.95702 0.50383-2.67088 0.83168-5.709162 1.03516-9.164067s0.28125-7.326351 0.28125-11.66211v-27.779297c0-4.335777-0.0778-8.205241-0.28125-11.660156-0.20348-3.454914-0.53133-6.495138-1.03516-9.166015-0.50382-2.670877-1.18296-4.973366-2.08398-6.957032-0.45051-0.991833-0.95547-1.904002-1.52344-2.742187s-1.19895-1.602187-1.89648-2.298828c-0.69754-0.696641-1.46353-1.325379-2.30274-1.892578-0.8392-0.567199-1.75115-1.073577-2.74414-1.523438-1.98597-0.899721-4.29111-1.577089-6.96484-2.080078-2.673736-0.502989-5.715477-0.830122-9.173828-1.033203-3.458352-0.203081-7.334005-0.28125-11.673828-0.28125z" style="fill:#bcbcbc"/>
    <path d="m46.301849 11.990731c-4.339822 0-8.215474 0.07817-11.673824 0.28125-3.45835 0.203081-6.50009 0.530214-9.17383 1.033203-2.67373 0.502989-4.97888 1.180357-6.96485 2.080078-0.99299 0.449861-1.90688 0.956239-2.74609 1.523438-0.8392 0.567199-1.60324 1.195937-2.30078 1.892578-0.69753 0.696641-1.32851 1.460643-1.89649 2.298828-0.56797 0.838185-1.07292 1.750354-1.52343 2.742187-0.9010204 1.983666-1.5801704 4.286155-2.0839904 6.957032-0.50383 2.670877-0.83363 5.711101-1.03711 9.166015-0.20349 3.454915-0.28125 7.324379-0.28125 11.660156v21.740235h57.212894v-61.375z" style="fill:#222f89"/>
    <path d="m63.833396 119.03926h17.802734c4.339823 0 8.215477-0.0762 11.673829-0.2793 3.458351-0.20308 6.500092-0.53216 9.173831-1.03515 2.67373-0.503 4.97887-1.18035 6.96484-2.08008 0.34714-0.15727 0.63112-0.36207 0.95898-0.5332l-46.527339-41.95508z" style="fill:#222f89"/>
    <path transform="matrix(.46881707 0 0 .46881707 3.9592733 6.3897851)" d="m127.48828 142.86133h-121.8125v12.88086c0 9.24829 0.1656449 17.50754 0.5996094 24.87695 0.2170143 3.68471 0.5027303 7.1469 0.8671875 10.40039 0.3644572 3.2535 0.8083614 6.29795 1.3457031 9.14649 0.5373312 2.84852 1.1675649 5.4999 1.9042968 7.96875 0.736732 2.46885 1.580065 4.75549 2.541016 6.87109 0.96095 2.1156 2.038504 4.06173 3.25 5.84961 1.211517 1.78786 2.557071 3.41639 4.044922 4.90234 1.487872 1.48598 3.116212 2.82726 4.90625 4.03711 1.790058 1.20986 3.739346 2.29044 5.857422 3.25 2.118064 0.95958 4.407259 1.79995 6.878906 2.53516 2.471646 0.73521 5.126945 1.36393 7.978515 1.90039 2.851582 0.53644 5.899231 0.98195 9.15625 1.3457 3.25702 0.36375 6.723731 0.6467 10.41211 0.86328 7.376758 0.4332 15.643428 0.59568 24.90039 0.59571h37.169921v-97.42383z" style="fill:#bcbcbc"/>
    <path d="m17.401758 115.04121c0.36867 0.19606 0.69451 0.4253 1.08789 0.60352 1.98597 0.89973 4.29111 1.57708 6.96484 2.08008 2.67374 0.50299 5.71548 0.83207 9.17383 1.03515 3.45835 0.20309 7.334006 0.2793 11.673828 0.2793h17.595703l-0.04687-45.88281z" style="fill:#bcbcbc"/>
   </g>
  </g>
  <path d="m23.895907 292.84218c-19.593907 0-22.394176-2.39182-22.394176-19.15402v-6.71183h64.729871v6.71183c0 16.7622-2.800268 19.15402-22.394175 19.15402z" style="fill:#ffffff;opacity:.25"/>
  <path transform="matrix(.1348539 0 0 .1348539 -4.9712559 261.01666)" d="M 361.9375,-212 C 507.2348,-212 528,-191.28677 528,-46.125 V 70.125 C 528,215.28618 507.2348,236 361.9375,236 H 214.0625 C 68.7652,236 48,215.28618 48,70.125 V -46.125 C 48,-191.28677 68.7652,-212 214.0625,-212 Z" clip-path="url(#clipPath1082-3-361)" style="fill:none;opacity:.4;stroke-linecap:round;stroke-linejoin:round;stroke-width:8;stroke:url(#linearGradient1108)"/>
 </g>
</svg>

<svg xmlns="http://www.w3.org/2000/svg" xmlns:xlink="http://www.w3.org/1999/xlink" width="256" height="256" version="1.1" viewBox="0 0 67.73 67.73">
 <defs>
  <linearGradient id="linearGradient1108" x1="296" x2="296" y1="-212" y2="236" gradientUnits="userSpaceOnUse" xlink:href="#linearGradient1013"/>
  <linearGradient id="linearGradient1013">
   <stop offset="0" style="stop-color:#ffffff"/>
   <stop style="stop-color:#ffffff;stop-opacity:0.09803922" offset=".125"/>
   <stop style="stop-color:#000000;stop-opacity:0.09803922" offset=".925"/>
   <stop offset="1" style="stop-color:#000000;stop-opacity:0.49803922"/>
  </linearGradient>
  <clipPath id="clipPath1082-3-361" clipPathUnits="userSpaceOnUse">
   <path d="M 361.9375,-212 C 507.2348,-212 528,-191.28677 528,-46.125 V 70.125 C 528,215.28618 507.2348,236 361.9375,236 H 214.0625 C 68.7652,236 48,215.28618 48,70.125 V -46.125 C 48,-191.28677 68.7652,-212 214.0625,-212 Z" style="fill:#8c59d9"/>
  </clipPath>
  <filter style="color-interpolation-filters:sRGB" id="filter4569" width="1.023" height="1.025" x="-.01" y="-.01">
   <feGaussianBlur stdDeviation="1.16"/>
  </filter>
  <filter style="color-interpolation-filters:sRGB" id="filter939" width="1.046" height="1.05" x="-.02" y="-.03">
   <feGaussianBlur stdDeviation="2.32"/>
  </filter>
 </defs>
 <g transform="translate(0,-229.26666)">
  <path style="opacity:0.2;filter:url(#filter939)" d="m 162.53675,5.5680001 c 72.64865,0 83.03125,10.3566149 83.03125,82.9375049 v 58.125005 c 0,72.58059 -10.3826,82.9375 -83.03125,82.9375 H 88.599254 C 15.9506,229.56801 5.568,219.2111 5.568,146.63051 V 88.505505 c 0,-72.58089 10.3826,-82.9375049 83.031254,-82.9375049 z" transform="matrix(0.26970779,0,0,0.26970779,-1.9098094e-8,231.46531)"/>
  <path d="m 43.837429,232.42763 c 19.593907,0 22.394176,2.79326 22.394176,22.36889 v 15.67677 c 0,19.57555 -2.800269,22.36889 -22.394176,22.36889 H 23.89591 c -19.5939088,0 -22.394177,-2.79334 -22.394177,-22.36889 v -15.67677 c 0,-19.57563 2.8002682,-22.36889 22.394177,-22.36889 z" style="opacity:0.1;fill:none;stroke:#000000;stroke-width:1.07883108;stroke-linecap:round;stroke-linejoin:round"/>
  <path d="m 162.53675,3.5680001 c 72.64865,0 83.03125,10.3566149 83.03125,82.9375049 v 58.125005 c 0,72.58059 -10.3826,82.9375 -83.03125,82.9375 H 88.599254 C 15.9506,227.56801 5.568,217.2111 5.568,144.63051 V 86.505505 c 0,-72.58089 10.3826,-82.9375049 83.031254,-82.9375049 z" transform="matrix(0.26970779,0,0,0.26970779,-1.9098094e-8,231.46531)" style="opacity:0.1;filter:url(#filter4569)"/>
  <g transform="matrix(0.56436369,0,0,0.56436369,-2.1444139,225.6357)">
   <g transform="translate(-0.15957115,0.0439385)">
    <path d="m 63.833099,11.990731 v 61.375 H 6.6202046 v 6.039062 c 0,4.335759 0.0778,8.207205 0.28125,11.66211 0.20348,3.454905 0.53328,6.493187 1.03711,9.164067 0.50382,2.67087 1.18297,4.97336 2.0839904,6.95702 0.45051,0.99183 0.95546,1.904 1.52343,2.74219 0.56798,0.83818 1.19896,1.60219 1.89649,2.29883 0.69754,0.69665 1.46158,1.32538 2.30078,1.89258 0.83921,0.5672 1.7531,1.07357 2.74609,1.52343 1.98597,0.89973 4.29112,1.57708 6.96485,2.08008 2.67374,0.50299 5.71548,0.83208 9.17383,1.03516 3.45835,0.20309 7.334002,0.27929 11.673824,0.2793 h 35.333985 c 4.339823,0 8.215476,-0.0762 11.673828,-0.2793 3.458351,-0.20308 6.500092,-0.53217 9.173828,-1.03516 2.67373,-0.503 4.97887,-1.18035 6.96484,-2.08008 0.99299,-0.44986 1.90494,-0.95623 2.74414,-1.52343 0.83921,-0.5672 1.6052,-1.19593 2.30274,-1.89258 0.69753,-0.69664 1.32851,-1.46065 1.89648,-2.29883 0.56797,-0.83819 1.07293,-1.75036 1.52344,-2.74219 0.90102,-1.98366 1.58016,-4.28615 2.08398,-6.95702 0.50383,-2.67088 0.83168,-5.709162 1.03516,-9.164067 0.20348,-3.454905 0.28125,-7.326351 0.28125,-11.66211 V 51.625496 c 0,-4.335777 -0.0778,-8.205241 -0.28125,-11.660156 -0.20348,-3.454914 -0.53133,-6.495138 -1.03516,-9.166015 -0.50382,-2.670877 -1.18296,-4.973366 -2.08398,-6.957032 -0.45051,-0.991833 -0.95547,-1.904002 -1.52344,-2.742187 -0.56797,-0.838185 -1.19895,-1.602187 -1.89648,-2.298828 -0.69754,-0.696641 -1.46353,-1.325379 -2.30274,-1.892578 -0.8392,-0.567199 -1.75115,-1.073577 -2.74414,-1.523438 -1.98597,-0.899721 -4.29111,-1.577089 -6.96484,-2.080078 -2.673736,-0.502989 -5.715477,-0.830122 -9.173828,-1.033203 -3.458352,-0.203081 -7.334005,-0.28125 -11.673828,-0.28125 z" style="fill:#bcbcbc"/>
    <path d="m 46.301849,11.990731 c -4.339822,0 -8.215474,0.07817 -11.673824,0.28125 -3.45835,0.203081 -6.50009,0.530214 -9.17383,1.033203 -2.67373,0.502989 -4.97888,1.180357 -6.96485,2.080078 -0.99299,0.449861 -1.90688,0.956239 -2.74609,1.523438 -0.8392,0.567199 -1.60324,1.195937 -2.30078,1.892578 -0.69753,0.696641 -1.32851,1.460643 -1.89649,2.298828 -0.56797,0.838185 -1.07292,1.750354 -1.52343,2.742187 -0.9010204,1.983666 -1.5801704,4.286155 -2.0839904,6.957032 -0.50383,2.670877 -0.83363,5.711101 -1.03711,9.166015 -0.20349,3.454915 -0.28125,7.324379 -0.28125,11.660156 V 73.365731 H 63.833099 v -61.375 z" style="fill:#222f89"/>
    <path d="M 63.833396,119.03926 H 81.63613 c 4.339823,0 8.215477,-0.0762 11.673829,-0.2793 3.458351,-0.20308 6.500092,-0.53216 9.173831,-1.03515 2.67373,-0.503 4.97887,-1.18035 6.96484,-2.08008 0.34714,-0.15727 0.63112,-0.36207 0.95898,-0.5332 L 63.880271,73.15645 Z" style="fill:#222f89"/>
    <path style="fill:#bcbcbc" d="M 127.48828 142.86133 L 5.6757812 142.86133 L 5.6757812 155.74219 C 5.6757812 164.99048 5.8414261 173.24973 6.2753906 180.61914 C 6.4924049 184.30385 6.7781209 187.76604 7.1425781 191.01953 C 7.5070353 194.27303 7.9509395 197.31748 8.4882812 200.16602 C 9.0256124 203.01454 9.6558461 205.66592 10.392578 208.13477 C 11.12931 210.60362 11.972643 212.89026 12.933594 215.00586 C 13.894544 217.12146 14.972098 219.06759 16.183594 220.85547 C 17.395111 222.64333 18.740665 224.27186 20.228516 225.75781 C 21.716388 227.24379 23.344728 228.58507 25.134766 229.79492 C 26.924824 231.00478 28.874112 232.08536 30.992188 233.04492 C 33.110252 234.0045 35.399447 234.84487 37.871094 235.58008 C 40.34274 236.31529 42.998039 236.94401 45.849609 237.48047 C 48.701191 238.01691 51.74884 238.46242 55.005859 238.82617 C 58.262879 239.18992 61.72959 239.47287 65.417969 239.68945 C 72.794727 240.12265 81.061397 240.28513 90.318359 240.28516 L 127.48828 240.28516 L 127.48828 142.86133 z" transform="matrix(0.46881707,0,0,0.46881707,3.9592733,6.3897851)"/>
    <path d="m 17.401758,115.04121 c 0.36867,0.19606 0.69451,0.4253 1.08789,0.60352 1.98597,0.89973 4.29111,1.57708 6.96484,2.08008 2.67374,0.50299 5.71548,0.83207 9.17383,1.03515 3.45835,0.20309 7.334006,0.2793 11.673828,0.2793 h 17.595703 l -0.04687,-45.88281 z" style="fill:#bcbcbc"/>
   </g>
  </g>
  <path style="opacity:0.25;fill:#ffffff" d="m 23.895907,292.84218 c -19.5939074,0 -22.3941756,-2.39182 -22.3941756,-19.15402 v -6.71183 H 66.231602 v 6.71183 c 0,16.7622 -2.800268,19.15402 -22.394175,19.15402 z"/>
  <path d="M 361.9375,-212 C 507.2348,-212 528,-191.28677 528,-46.125 V 70.125 C 528,215.28618 507.2348,236 361.9375,236 H 214.0625 C 68.7652,236 48,215.28618 48,70.125 V -46.125 C 48,-191.28677 68.7652,-212 214.0625,-212 Z" clip-path="url(#clipPath1082-3-361)" transform="matrix(0.1348539,0,0,0.1348539,-4.9712559,261.01666)" style="opacity:0.4;fill:none;stroke:url(#linearGradient1108);stroke-width:8;stroke-linecap:round;stroke-linejoin:round"/>
 </g>
</svg>
